X: 1021
T: Kit O'Mahony's Jig
N:"Collected by F.O'Neill"
B:O'Neill's 1021
Z:Transcribed by Dan G. Petersen, dangp@post6.tele.dk
M:6/8
L:1/8
K:G
(d/c/)|BcB ABA|GAG FGA|BAB cAF|DGG Gdc|
BAG AGF|DGE FGA|fed cAF|DGG G2:|
A|GBd deg|fed cAF|GBd def|gfg def|
gfe fed|edB cde|fed cAF|DGG G2:|
D|GBd cAc|BGG GBd|gdB cAE|FGA cAF|
GBd cAc|BGG gfg|fed cAF|DGG G2:|
d|gfg dBG|fed cAF|GBd deg|fef def|
gfg afd|bag afd|fed cAF|DGG G2:|


